X:13524
T:Port Ui Fhaolain
S:unknown, photocopy from Tony Gordon. no 49 on p.20
M:6/8
I:speed 300
K:G
|: ~E3 BAF | FEB AFD | ~E3 BAF | dAF FED | 
~E3 BAF | FEB AFA | (4B^cdB BAF | dAF FED :|
|: ~B3 ~e3 | fed e3 | (3Bcd ef ~g3 | fdB AFA |
~Be ~e3 | fed e2f | gbg faf | edB AFA :|
